src/lib/packages/icons/src/assets/line/activity-circle.svg

<svg width="24" height="24" viewBox="0 0 24 24" fill="none" xmlns="http://www.w3.org/2000/svg">
<path d="M12 1.25C6.072 1.25 1.25 6.072 1.25 12C1.25 17.928 6.072 22.75 12 22.75C17.928 22.75 22.75 17.928 22.75 12C22.75 6.072 17.928 1.25 12 1.25ZM12 21.25C6.899 21.25 2.75 17.101 2.75 12C2.75 6.899 6.899 2.75 12 2.75C17.101 2.75 21.25 6.899 21.25 12C21.25 17.101 17.101 21.25 12 21.25ZM17.53 9.46997C17.823 9.76297 17.823 10.238 17.53 10.531L14.737 13.324C14.056 14.006 12.945 14.007 12.263 13.325L10.674 11.74C10.576 11.642 10.418 11.642 10.32 11.74L7.529 14.531C7.383 14.677 7.191 14.751 6.999 14.751C6.807 14.751 6.615 14.678 6.469 14.531C6.176 14.238 6.176 13.763 6.469 13.47L9.25999 10.679C9.94199 9.99695 11.052 9.99698 11.734 10.678L13.323 12.2629C13.421 12.3599 13.579 12.3599 13.677 12.2629L16.47 9.46997C16.763 9.17697 17.237 9.17697 17.53 9.46997Z" fill="currentColor"/>
</svg>

<svg xmlns="http://www.w3.org/2000/svg" width="24" height="24" fill="none"><path fill="currentColor" d="M12 1.25C6.072 1.25 1.25 6.072 1.25 12S6.072 22.75 12 22.75 22.75 17.928 22.75 12 17.928 1.25 12 1.25Zm0 20c-5.101 0-9.25-4.149-9.25-9.25S6.899 2.75 12 2.75s9.25 4.149 9.25 9.25-4.149 9.25-9.25 9.25Zm5.53-11.78a.75.75 0 0 1 0 1.061l-2.793 2.793a1.752 1.752 0 0 1-2.474.001l-1.589-1.585a.25.25 0 0 0-.354 0l-2.791 2.791a.748.748 0 0 1-1.06 0 .75.75 0 0 1 0-1.061l2.791-2.791a1.752 1.752 0 0 1 2.474-.001l1.589 1.585a.252.252 0 0 0 .354 0L16.47 9.47a.749.749 0 0 1 1.06 0Z"/></svg>
